svgs/duotone/circle-b.svg

<svg xmlns="http://www.w3.org/2000/svg" viewBox="0 0 512 512"><!-- Font Awesome Pro 6.0.0-alpha2 by @fontawesome - https://fontawesome.com License - https://fontawesome.com/license (Commercial License) --><defs><style>.fa-secondary{opacity:.4}</style></defs><path d="M304 204C304 188.562 291.438 176 276 176H208V232H276C291.438 232 304 219.438 304 204ZM292 280H208V336H292C307.438 336 320 323.438 320 308S307.438 280 292 280ZM256 16C123.451 16 16 123.451 16 256S123.451 496 256 496S496 388.549 496 256S388.549 16 256 16ZM292 384H184C170.75 384 160 373.25 160 360V152C160 138.75 170.75 128 184 128H276C317.906 128 352 162.094 352 204C352 220.346 346.699 235.41 337.883 247.82C356.062 261.719 368 283.4 368 308C368 349.906 333.906 384 292 384Z" class="fa-secondary"/><path d="M337.883 247.82C346.699 235.41 352 220.346 352 204C352 162.094 317.906 128 276 128H184C170.75 128 160 138.75 160 152V360C160 373.25 170.75 384 184 384H292C333.906 384 368 349.906 368 308C368 283.4 356.062 261.719 337.883 247.82ZM208 176H276C291.438 176 304 188.562 304 204S291.438 232 276 232H208V176ZM292 336H208V280H292C307.438 280 320 292.562 320 308S307.438 336 292 336Z" class="fa-primary"/></svg>

<svg xmlns="http://www.w3.org/2000/svg" viewBox="0 0 512 512"><!--! Font Awesome Pro 6.3.0 by @fontawesome - https://fontawesome.com License - https://fontawesome.com/license (Commercial License) Copyright 2023 Fonticons, Inc. --><defs><style>.fa-secondary{opacity:.4}</style></defs><path class="fa-primary" d="M337.9 247.8C346.7 235.4 352 220.3 352 204C352 162.1 317.9 128 276 128H184C170.8 128 160 138.8 160 152v208C160 373.3 170.8 384 184 384h108c41.91 0 76-34.09 76-76C368 283.4 356.1 261.7 337.9 247.8zM208 176h68c15.44 0 28 12.56 28 28S291.4 232 276 232H208V176zM292 336H208V280h84C307.4 280 320 292.6 320 308S307.4 336 292 336z"/><path class="fa-secondary" d="M292 280H208v56h84C307.4 336 320 323.4 320 308S307.4 280 292 280zM304 204c0-15.44-12.56-28-28-28H208v56h68C291.4 232 304 219.4 304 204zM256 0C114.6 0 0 114.6 0 256s114.6 256 256 256s256-114.6 256-256S397.4 0 256 0zM292 384H184C170.8 384 160 373.3 160 360v-208C160 138.8 170.8 128 184 128h92C317.9 128 352 162.1 352 204c0 16.35-5.301 31.41-14.12 43.82C356.1 261.7 368 283.4 368 308C368 349.9 333.9 384 292 384z"/></svg>
